blockchains/ethereum/assets/0x39Bb259F66E1C59d5ABEF88375979b4D20D98022/logo.svg

<svg fill="none" height="250" viewBox="0 0 250 250" width="250" xmlns="http://www.w3.org/2000/svg" xmlns:xlink="http://www.w3.org/1999/xlink"><clipPath id="a"><path d="m0 0h250v250h-250z"/></clipPath><g clip-path="url(#a)"><path d="m125 250c69.036 0 125-55.964 125-125 0-69.0356-55.964-125-125-125-69.0356 0-125 55.9644-125 125 0 69.036 55.9644 125 125 125z" fill="#f89022"/><path d="m218.75 148.141h-18.469l-13.101-11.219-13.055 11.172h-15.609l-7.461-9.063h-25.719l6.508-8.039h12.648l-9.633-11.781-33.632 40.945h-15.602l9.7344-11.89h-16.2578l-8.7891-24.641-8.7187 24.453h-16.4922l-13.8516-38.383h12.6562l9.3126 26.141 9.2812-26.024h15.625l9.2578 25.969 9.25-25.976h12.6952l-13.9686 38.461 3.1094-3.797 28.5312-34.727h15.703l23.742 28.969 11.422-9.82-36.148-31.2348h18.554zm-18.32-23.219-8.711-7.469 8.695-7.406 17.578.016z" fill="#fff"/></g></svg>

<svg width="250" height="250" viewBox="0 0 250 250" fill="none" xmlns="http://www.w3.org/2000/svg">
<g clip-path="url(#clip0_50_11865)">
<path d="M125 250C194.036 250 250 194.036 250 125C250 55.9644 194.036 0 125 0C55.9644 0 0 55.9644 0 125C0 194.036 55.9644 250 125 250Z" fill="#F89022"/>
<path d="M218.75 148.141H200.281L187.18 136.922L174.125 148.094H158.516L151.055 139.031H125.336L131.844 130.992H144.492L134.859 119.211L101.227 160.156H85.625L95.3594 148.266H79.1016L70.3125 123.625L61.5938 148.078H45.1016L31.25 109.695H43.9062L53.2188 135.836L62.5 109.812H78.125L87.3828 135.781L96.6328 109.805H109.328L95.3594 148.266L98.4688 144.469L127 109.742H142.703L166.445 138.711L177.867 128.891L141.719 97.6562H160.273L218.75 148.141ZM200.43 124.922L191.719 117.453L200.414 110.047L217.992 110.063L200.43 124.922Z" fill="white"/>
</g>
<defs>
<clipPath id="clip0_50_11865">
<rect width="250" height="250" fill="white"/>
</clipPath>
</defs>
</svg>
